X:1
T: Jack's Alive
P:Gow Collection version
R:Jig
Q:180
K:G
M:6/8
L:1/16
D2|G2A2G2 B6|A2B2A2 c6|B2d2B2 c4A2|B4G2 A2F2D2|G2A2G2 B6|A2B2A2 c6|B2d2B2 c2A2F2|G6G6|
G2A2G2 B6|A2B2A2 c6|B2d2B2 c4A2|B4G2 A2F2D2|G2A2G2 B6|A2B2A2 c6|B2d2B2 c2A2F2|G6G6|
g4g2 g2a2g2|f4f2 f2g2f2|e4e2 e2f2g2|a4g2 f2e2d2|g4g2 g2a2g2|f4f2 f2g2f2|e2f2g2 a2f2d2|g6g4d2|
g2a2g2 g2a2g2|f2g2f2 f2g2f2|e2f2e2 e2f2g2|a4g2 f2e2d2|g6 B2c2d2|e6 A2B2c2|d2B2G2 c2A2F2|G6 G4||
